src/cmd/lc_showinvalid.svg

<svg viewBox="0 0 24 24" xmlns="http://www.w3.org/2000/svg"><path d="m4 4v1 15h1 14 1v-15-1zm1 1h4v1 1h-1-3zm5 0h4v1 1h-4v-1zm5 0h4v2h-3-1v-1zm-10 3h3 1v1.3613281a4 4 0 0 1 1-.8203125v-.5410156h2 2v.5410156a4 4 0 0 1 1 .8203125v-1.3613281h4v2h-3.541016a4 4 0 0 1 .410157 1h3.130859v2h-3.132812a4 4 0 0 1 -.408204 1h3.541016v2h-4v-1.361328a4 4 0 0 1 -1 .820312v.541016h-2-2v-.541016a4 4 0 0 1 -1-.820312v1.361328h-1-3v-2h3.5410156a4 4 0 0 1 -.4101562-1h-3.1308594v-2h3.1328125a4 4 0 0 1 .4082031-1h-3.5410156zm0 9h3 1v1.099609.900391h-4zm5 0h4v2h-4zm5 0h4v2h-4z" fill="#232629"/><path d="m12 8a4 4 0 0 0 -4 4 4 4 0 0 0 4 4 4 4 0 0 0 4-4 4 4 0 0 0 -4-4zm0 1a3 3 0 0 1 3 3 3 3 0 0 1 -3 3 3 3 0 0 1 -3-3 3 3 0 0 1 3-3zm-1.009766 1-.990234.990234 1.009766 1.009766-1.009766 1.009766.990234.990234 1.009766-1.009766 1.009766 1.009766.990234-.990234-1.009766-1.009766 1.009766-1.009766-.990234-.990234-1.009766 1.009766z" fill="#c7162b"/></svg>

<?xml version="1.0" encoding="UTF-8" standalone="no"?>
<svg
   xmlns:dc="http://purl.org/dc/elements/1.1/"
   xmlns:cc="http://creativecommons.org/ns#"
   xmlns:rdf="http://www.w3.org/1999/02/22-rdf-syntax-ns#"
   xmlns:svg="http://www.w3.org/2000/svg"
   xmlns="http://www.w3.org/2000/svg"
   xmlns:sodipodi="http://sodipodi.sourceforge.net/DTD/sodipodi-0.dtd"
   xmlns:inkscape="http://www.inkscape.org/namespaces/inkscape"
   viewBox="0 0 24 24"
   version="1.1"
   id="svg6"
   sodipodi:docname="lc_showinvalid.svg"
   inkscape:version="0.92.4 (5da689c313, 2019-01-14)">
  <metadata
     id="metadata12">
    <rdf:RDF>
      <cc:Work
         rdf:about="">
        <dc:format>image/svg+xml</dc:format>
        <dc:type
           rdf:resource="http://purl.org/dc/dcmitype/StillImage" />
      </cc:Work>
    </rdf:RDF>
  </metadata>
  <defs
     id="defs10" />
  <sodipodi:namedview
     pagecolor="#ffffff"
     bordercolor="#666666"
     borderopacity="1"
     objecttolerance="10"
     gridtolerance="10"
     guidetolerance="10"
     inkscape:pageopacity="0"
     inkscape:pageshadow="2"
     inkscape:window-width="1920"
     inkscape:window-height="1011"
     id="namedview8"
     showgrid="true"
     inkscape:zoom="27.812867"
     inkscape:cx="12.860716"
     inkscape:cy="12.406659"
     inkscape:window-x="1920"
     inkscape:window-y="32"
     inkscape:window-maximized="1"
     inkscape:current-layer="svg6">
    <inkscape:grid
       type="xygrid"
       id="grid822" />
  </sodipodi:namedview>
  <path
     d="M 7,4 C 5,4 4,4 4,6 v 12 c 0,2 1,2 3,2 h 10 c 2,0 3,0 3,-2 V 6 C 20,4 19,4 17,4 Z M 5,6 C 5,5 6,5 7,5 H 9 V 6 7 H 8 5 Z m 5,-1 h 4 V 6 7 H 10 V 6 Z m 5,0 h 2 c 1,0 2,0 2,1 V 7 H 16 15 V 6 Z M 5,8 H 8 9 V 9.3613281 C 9.286625,9.0354522 9.6243728,8.7583935 10,8.5410156 V 8 h 2 2 v 0.5410156 c 0.375627,0.2173779 0.713375,0.4944366 1,0.8203125 V 8 h 4 v 2 h -3.541016 c 0.181332,0.313242 0.31931,0.649645 0.410157,1 H 19 v 2 h -3.132812 c -0.09023,0.350256 -0.22755,0.686655 -0.408204,1 H 19 v 2 h -4 v -1.361328 c -0.286625,0.325876 -0.624373,0.602934 -1,0.820312 V 16 H 12 10 V 15.458984 C 9.6243728,15.241606 9.286625,14.964548 9,14.638672 V 16 H 8 5 V 14 H 8.5410156 C 8.3596839,13.686758 8.2217058,13.350355 8.1308594,13 H 5 V 11 H 8.1328125 C 8.223043,10.649744 8.3603623,10.313345 8.5410156,10 H 5 Z m 0,9 H 8 9 V 18.099609 19 H 7 C 6,19 5,19 5,18 Z m 5,0 h 4 v 2 h -4 z m 5,0 h 4 v 1 c 0,1 -1,1 -2,1 h -2 z"
     id="path2"
     inkscape:connector-curvature="0"
     style="fill:#232629"
     sodipodi:nodetypes="cccccccccccccccccccccccccccccccccccccccccccccccccccccccccccccccccccccccccccccccccccccccccccc" />
  <path
     d="m12 8a4 4 0 0 0 -4 4 4 4 0 0 0 4 4 4 4 0 0 0 4-4 4 4 0 0 0 -4-4zm0 1a3 3 0 0 1 3 3 3 3 0 0 1 -3 3 3 3 0 0 1 -3-3 3 3 0 0 1 3-3zm-1.009766 1-.990234.990234 1.009766 1.009766-1.009766 1.009766.990234.990234 1.009766-1.009766 1.009766 1.009766.990234-.990234-1.009766-1.009766 1.009766-1.009766-.990234-.990234-1.009766 1.009766z"
     fill="#c7162b"
     id="path4" />
</svg>
